src/renderer/assets/svg/tx-detail.svg

<svg width="24" height="24" viewBox="0 0 24 24" fill="none" xmlns="http://www.w3.org/2000/svg">
<path d="M13.9563 19.7019H6.07741C5.60864 19.7019 5.16692 19.5126 4.85141 19.1971C4.53589 18.8816 4.34658 18.4218 4.34658 17.9711V6.04459C4.34658 5.57583 4.53589 5.1341 4.85141 4.81859C5.18495 4.48504 5.61766 4.31376 6.07741 4.31376H18.0039C18.4727 4.31376 18.9144 4.50307 19.2299 4.81859C19.5634 5.15213 19.7347 5.58484 19.7347 6.04459L19.7077 13.9325C19.7077 14.2841 19.9961 14.5725 20.3477 14.5725C20.6993 14.5725 20.9878 14.2931 20.9878 13.9415L21.0148 6.05361C21.0148 5.2513 20.6903 4.48504 20.1224 3.91712C19.5544 3.34919 18.7882 3.02466 17.9859 3.02466H6.07741C5.2751 3.02466 4.50885 3.34919 3.94092 3.91712C3.37299 4.48504 3.04846 5.24228 3.04846 6.05361V17.9711C3.04846 18.7734 3.37299 19.5396 3.94092 20.1076C4.50885 20.6755 5.2751 21 6.07741 21H13.9653C14.3169 21 14.6053 20.7116 14.6053 20.36C14.5963 19.9994 14.3169 19.7019 13.9563 19.7019Z" fill="#AAB5C4"/>
<path d="M20.8344 19.8909L18.3824 17.4389C19.5363 15.8072 19.2568 13.5536 17.7333 12.2645C16.2098 10.9753 13.9381 11.0655 12.5138 12.4808C11.0895 13.8961 11.0083 16.1588 12.2974 17.7003C13.5865 19.2328 15.8402 19.5213 17.4719 18.3494L19.9239 20.8014C19.9836 20.8614 20.0545 20.909 20.1326 20.9415C20.2107 20.974 20.2945 20.9907 20.3791 20.9907C20.4637 20.9907 20.5475 20.974 20.6257 20.9415C20.7038 20.909 20.7747 20.8614 20.8344 20.8014C21.0868 20.54 21.0868 20.1343 20.8344 19.8909ZM15.2543 17.7815C14.0283 17.7815 12.9735 16.916 12.7301 15.7171C12.4958 14.5181 13.1358 13.3102 14.2717 12.8414C15.4075 12.3726 16.7147 12.7693 17.3908 13.7879C18.0669 14.8066 17.9407 16.1678 17.0662 17.0332C16.5794 17.511 15.9304 17.7815 15.2543 17.7815ZM17.1744 8.8028C17.526 8.8028 17.8144 8.51432 17.8144 8.16275C17.8144 7.81118 17.526 7.52271 17.1744 7.52271H6.89761C6.54604 7.52271 6.25757 7.81118 6.25757 8.16275C6.25757 8.51432 6.54604 8.8028 6.89761 8.8028H17.1744ZM10.7559 12.6431C10.9813 12.6431 11.1976 12.5169 11.3148 12.3185C11.432 12.1202 11.432 11.8768 11.3148 11.6785C11.1976 11.4802 10.9813 11.354 10.7559 11.354H6.89761C6.54604 11.354 6.25757 11.6424 6.25757 11.994C6.25757 12.3456 6.54604 12.6341 6.89761 12.6341C6.89761 12.6431 10.7559 12.6431 10.7559 12.6431ZM6.90663 15.2033C6.55505 15.2033 6.26658 15.4917 6.26658 15.8433C6.26658 16.1949 6.55505 16.4833 6.90663 16.4833H9.46681C9.69218 16.4833 9.90853 16.3571 10.0257 16.1588C10.1429 15.9605 10.1429 15.7171 10.0257 15.5188C9.90853 15.3204 9.69218 15.1942 9.46681 15.1942H6.90663V15.2033Z" fill="#AAB5C4"/>
</svg>

<svg xmlns="http://www.w3.org/2000/svg" width="24" height="24" fill="none" viewBox="0 0 24 24"><path fill="#AAB5C4" d="M13.956 19.702H6.077c-.468 0-.91-.19-1.226-.505a1.772 1.772 0 0 1-.504-1.226V6.045c0-.47.189-.91.504-1.226a1.71 1.71 0 0 1 1.226-.505h11.927c.469 0 .91.19 1.226.505.333.333.505.766.505 1.226l-.027 7.887c0 .352.288.64.64.64.351 0 .64-.279.64-.63l.027-7.888c0-.803-.325-1.569-.893-2.137a3.024 3.024 0 0 0-2.136-.892H6.077c-.802 0-1.568.324-2.136.892a3.008 3.008 0 0 0-.893 2.137V17.97c0 .802.325 1.569.893 2.137A3.024 3.024 0 0 0 6.077 21h7.888c.352 0 .64-.288.64-.64a.66.66 0 0 0-.649-.658"/><path fill="#AAB5C4" d="m20.834 19.89-2.452-2.451a3.865 3.865 0 0 0-.649-5.174 3.869 3.869 0 0 0-5.22.216c-1.424 1.415-1.505 3.678-.216 5.22a3.837 3.837 0 0 0 5.175.648l2.452 2.452a.643.643 0 0 0 .91 0 .642.642 0 0 0 0-.91m-5.58-2.108a2.577 2.577 0 0 1-2.524-2.065 2.577 2.577 0 0 1 1.542-2.876 2.567 2.567 0 0 1 2.794 4.192 2.59 2.59 0 0 1-1.812.749m1.92-8.98c.352 0 .64-.288.64-.64a.642.642 0 0 0-.64-.64H6.898a.643.643 0 0 0-.64.64c0 .352.288.64.64.64zm-6.418 3.841a.659.659 0 0 0 .559-.325.626.626 0 0 0 0-.64.659.659 0 0 0-.56-.324H6.899a.642.642 0 0 0-.64.64c0 .352.288.64.64.64 0 .01 3.858.01 3.858.01m-3.85 2.56a.642.642 0 0 0-.64.64c0 .352.289.64.64.64h2.56a.659.659 0 0 0 .56-.324.626.626 0 0 0 0-.64.659.659 0 0 0-.56-.325h-2.56z"/></svg>
